resources/svg/plug-line.svg

<svg fill="currentColor" viewBox="0 0 24 24" xmlns="http://www.w3.org/2000/svg"><path d="M13 18V20H19V22H13C11.8954 22 11 21.1046 11 20V18H8C5.79086 18 4 16.2091 4 14V7C4 6.44772 4.44772 6 5 6H8V2H10V6H14V2H16V6H19C19.5523 6 20 6.44772 20 7V14C20 16.2091 18.2091 18 16 18H13ZM8 16H16C17.1046 16 18 15.1046 18 14V11H6V14C6 15.1046 6.89543 16 8 16ZM18 8H6V9H18V8ZM12 14.5C11.4477 14.5 11 14.0523 11 13.5C11 12.9477 11.4477 12.5 12 12.5C12.5523 12.5 13 12.9477 13 13.5C13 14.0523 12.5523 14.5 12 14.5Z"/></svg>

<svg xmlns="http://www.w3.org/2000/svg" viewBox="0 0 24 24" fill="currentColor">
    <g>
        <path fill="none" d="M0 0h24v24H0z"/>
        <path fill-rule="nonzero" d="M13 18v2h6v2h-6a2 2 0 0 1-2-2v-2H8a4 4 0 0 1-4-4V7a1 1 0 0 1 1-1h3V2h2v4h4V2h2v4h3a1 1 0 0 1 1 1v7a4 4 0 0 1-4 4h-3zm-5-2h8a2 2 0 0 0 2-2v-3H6v3a2 2 0 0 0 2 2zm10-8H6v1h12V8zm-6 6.5a1 1 0 1 1 0-2 1 1 0 0 1 0 2z"/>
    </g>
</svg>
